img/python-logo.svg

<?xml version="1.0" encoding="UTF-8" standalone="no"?>
<!-- Created with Inkscape (http://www.inkscape.org/) -->
<svg
   xmlns:dc="http://purl.org/dc/elements/1.1/"
   xmlns:cc="http://web.resource.org/cc/"
   xmlns:rdf="http://www.w3.org/1999/02/22-rdf-syntax-ns#"
   xmlns:svg="http://www.w3.org/2000/svg"
   xmlns="http://www.w3.org/2000/svg"
   xmlns:xlink="http://www.w3.org/1999/xlink"
   xmlns:sodipodi="http://inkscape.sourceforge.net/DTD/sodipodi-0.dtd"
   xmlns:inkscape="http://www.inkscape.org/namespaces/inkscape"
   version="1.0"
   width="388.84pt"
   height="115.02pt"
   id="svg2"
   sodipodi:version="0.32"
   inkscape:version="0.43"
   sodipodi:docname="logo-python-generic.svg"
   sodipodi:docbase="/home/sdeibel">
  <metadata
     id="metadata2193">
    <rdf:RDF>
      <cc:Work
         rdf:about="">
        <dc:format>image/svg+xml</dc:format>
        <dc:type
           rdf:resource="http://purl.org/dc/dcmitype/StillImage" />
      </cc:Work>
    </rdf:RDF>
  </metadata>
  <sodipodi:namedview
     inkscape:window-height="543"
     inkscape:window-width="791"
     inkscape:pageshadow="2"
     inkscape:pageopacity="0.0"
     borderopacity="1.0"
     bordercolor="#666666"
     pagecolor="#ffffff"
     id="base"
     inkscape:zoom="1.4340089"
     inkscape:cx="243.02499"
     inkscape:cy="71.887497"
     inkscape:window-x="0"
     inkscape:window-y="0"
     inkscape:current-layer="svg2" />
  <defs
     id="defs4">
    <linearGradient
       id="linearGradient2795">
      <stop
         style="stop-color:#b8b8b8;stop-opacity:0.49803922"
         offset="0"
         id="stop2797" />
      <stop
         style="stop-color:#7f7f7f;stop-opacity:0"
         offset="1"
         id="stop2799" />
    </linearGradient>
    <linearGradient
       id="linearGradient2787">
      <stop
         style="stop-color:#7f7f7f;stop-opacity:0.5"
         offset="0"
         id="stop2789" />
      <stop
         style="stop-color:#7f7f7f;stop-opacity:0"
         offset="1"
         id="stop2791" />
    </linearGradient>
    <linearGradient
       id="linearGradient3676">
      <stop
         style="stop-color:#b2b2b2;stop-opacity:0.5"
         offset="0"
         id="stop3678" />
      <stop
         style="stop-color:#b3b3b3;stop-opacity:0"
         offset="1"
         id="stop3680" />
    </linearGradient>
    <linearGradient
       id="linearGradient3236">
      <stop
         style="stop-color:#f4f4f4;stop-opacity:1"
         offset="0"
         id="stop3244" />
      <stop
         style="stop-color:#ffffff;stop-opacity:1"
         offset="1"
         id="stop3240" />
    </linearGradient>
    <linearGradient
       id="linearGradient4671">
      <stop
         style="stop-color:#ffd43b;stop-opacity:1"
         offset="0"
         id="stop4673" />
      <stop
         style="stop-color:#ffe873;stop-opacity:1"
         offset="1"
         id="stop4675" />
    </linearGradient>
    <linearGradient
       id="linearGradient4689">
      <stop
         style="stop-color:#5a9fd4;stop-opacity:1"
         offset="0"
         id="stop4691" />
      <stop
         style="stop-color:#306998;stop-opacity:1"
         offset="1"
         id="stop4693" />
    </linearGradient>
    <linearGradient
       x1="224.23996"
       y1="144.75717"
       x2="-65.308502"
       y2="144.75717"
       id="linearGradient2987"
       xlink:href="#linearGradient4671"
       gradientUnits="userSpaceOnUse"
       gradientTransform="translate(100.2702,99.61116)" />
    <linearGradient
       x1="172.94208"
       y1="77.475983"
       x2="26.670298"
       y2="76.313133"
       id="linearGradient2990"
       xlink:href="#linearGradient4689"
       gradientUnits="userSpaceOnUse"
       gradientTransform="translate(100.2702,99.61116)" />
    <linearGradient
       x1="172.94208"
       y1="77.475983"
       x2="26.670298"
       y2="76.313133"
       id="linearGradient2587"
       xlink:href="#linearGradient4689"
       gradientUnits="userSpaceOnUse"
       gradientTransform="translate(100.2702,99.61116)" />
    <linearGradient
       x1="224.23996"
       y1="144.75717"
       x2="-65.308502"
       y2="144.75717"
       id="linearGradient2589"
       xlink:href="#linearGradient4671"
       gradientUnits="userSpaceOnUse"
       gradientTransform="translate(100.2702,99.61116)" />
    <linearGradient
       x1="172.94208"
       y1="77.475983"
       x2="26.670298"
       y2="76.313133"
       id="linearGradient2248"
       xlink:href="#linearGradient4689"
       gradientUnits="userSpaceOnUse"
       gradientTransform="translate(100.2702,99.61116)" />
    <linearGradient
       x1="224.23996"
       y1="144.75717"
       x2="-65.308502"
       y2="144.75717"
       id="linearGradient2250"
       xlink:href="#linearGradient4671"
       gradientUnits="userSpaceOnUse"
       gradientTransform="translate(100.2702,99.61116)" />
    <linearGradient
       x1="224.23996"
       y1="144.75717"
       x2="-65.308502"
       y2="144.75717"
       id="linearGradient2255"
       xlink:href="#linearGradient4671"
       gradientUnits="userSpaceOnUse"
       gradientTransform="matrix(0.562541,0,0,0.567972,-11.5974,-7.60954)" />
    <linearGradient
       x1="172.94208"
       y1="76.176224"
       x2="26.670298"
       y2="76.313133"
       id="linearGradient2258"
       xlink:href="#linearGradient4689"
       gradientUnits="userSpaceOnUse"
       gradientTransform="matrix(0.562541,0,0,0.567972,-11.5974,-7.60954)" />
    <radialGradient
       cx="61.518883"
       cy="132.28575"
       r="29.036913"
       fx="61.518883"
       fy="132.28575"
       id="radialGradient2801"
       xlink:href="#linearGradient2795"
       gradientUnits="userSpaceOnUse"
       gradientTransform="matrix(1,0,0,0.177966,0,108.7434)" />
    <linearGradient
       x1="150.96111"
       y1="192.35176"
       x2="112.03144"
       y2="137.27299"
       id="linearGradient1475"
       xlink:href="#linearGradient4671"
       gradientUnits="userSpaceOnUse"
       gradientTransform="matrix(0.562541,0,0,0.567972,-9.399749,-5.305317)" />
    <linearGradient
       x1="26.648937"
       y1="20.603781"
       x2="135.66525"
       y2="114.39767"
       id="linearGradient1478"
       xlink:href="#linearGradient4689"
       gradientUnits="userSpaceOnUse"
       gradientTransform="matrix(0.562541,0,0,0.567972,-9.399749,-5.305317)" />
    <radialGradient
       cx="61.518883"
       cy="132.28575"
       r="29.036913"
       fx="61.518883"
       fy="132.28575"
       id="radialGradient1480"
       xlink:href="#linearGradient2795"
       gradientUnits="userSpaceOnUse"
       gradientTransform="matrix(2.382716e-8,-0.296405,1.43676,4.683673e-7,-128.544,150.5202)" />
  </defs>
  <g
     id="g2303">
    <path
       id="path46"
       style="fill:#646464;fill-opacity:1"
       d="M 184.61344,61.929363 C 184.61344,47.367213 180.46118,39.891193 172.15666,39.481813 C 168.85239,39.325863 165.62611,39.852203 162.48754,41.070593 C 159.98254,41.967323 158.2963,42.854313 157.40931,43.751043 L 157.40931,78.509163 C 162.72147,81.842673 167.43907,83.392453 171.55234,83.148783 C 180.25649,82.573703 184.61344,75.507063 184.61344,61.929363 z M 194.85763,62.533683 C 194.85763,69.931723 193.12265,76.072393 189.63319,80.955683 C 185.7441,86.482283 180.35396,89.328433 173.46277,89.484393 C 168.26757,89.650093 162.91642,88.022323 157.40931,84.610843 L 157.40931,116.20116 L 148.50047,113.02361 L 148.50047,42.903043 C 149.96253,41.109583 151.84372,39.569543 154.12454,38.263433 C 159.42696,35.173603 165.86978,33.584823 173.45302,33.506853 L 173.57973,33.633563 C 180.50991,33.545833 185.85132,36.391993 189.60395,42.162263 C 193.10315,47.454933 194.85763,54.238913 194.85763,62.533683 z " />
    <path
       id="path48"
       style="fill:#646464;fill-opacity:1"
       d="M 249.30487,83.265743 C 249.30487,93.188283 248.31067,100.05998 246.32227,103.88084 C 244.32411,107.7017 240.52275,110.75254 234.90842,113.02361 C 230.35653,114.81707 225.43425,115.79178 220.15133,115.95748 L 218.67952,110.34316 C 224.05016,109.61213 227.83204,108.88109 230.02513,108.15006 C 234.34309,106.688 237.30621,104.44617 238.93397,101.44406 C 240.24008,98.997543 240.88339,94.328693 240.88339,87.418003 L 240.88339,85.098203 C 234.79146,87.866373 228.40711,89.240713 221.73036,89.240713 C 217.34417,89.240713 213.47457,87.866373 210.14107,85.098203 C 206.39818,82.086343 204.52674,78.265483 204.52674,73.635623 L 204.52674,36.557693 L 213.43558,33.506853 L 213.43558,70.828453 C 213.43558,74.815013 214.7222,77.885353 217.29543,80.039463 C 219.86866,82.193563 223.20217,83.226753 227.2862,83.148783 C 231.37023,83.061053 235.74667,81.482023 240.39603,78.392203 L 240.39603,34.851953 L 249.30487,34.851953 L 249.30487,83.265743 z " />
    <path
       id="path50"
       style="fill:#646464;fill-opacity:1"
       d="M 284.08249,88.997033 C 283.02006,89.084753 282.04535,89.123743 281.14862,89.123743 C 276.10937,89.123743 272.18129,87.924853 269.37413,85.517323 C 266.57671,83.109793 265.17314,79.786033 265.17314,75.546053 L 265.17314,40.456523 L 259.07146,40.456523 L 259.07146,34.851953 L 265.17314,34.851953 L 265.17314,19.968143 L 274.07223,16.800333 L 274.07223,34.851953 L 284.08249,34.851953 L 284.08249,40.456523 L 274.07223,40.456523 L 274.07223,75.302373 C 274.07223,78.645623 274.96896,81.014163 276.76243,82.398253 C 278.30247,83.538663 280.74899,84.191723 284.08249,84.357423 L 284.08249,88.997033 z " />
    <path
       id="path52"
       style="fill:#646464;fill-opacity:1"
       d="M 338.02288,88.266003 L 329.11404,88.266003 L 329.11404,53.878273 C 329.11404,50.379063 328.29528,47.367213 326.66753,44.852463 C 324.78634,42.006313 322.17411,40.583233 318.82112,40.583233 C 314.73708,40.583233 309.6296,42.737343 303.4987,47.045563 L 303.4987,88.266003 L 294.58985,88.266003 L 294.58985,6.0687929 L 303.4987,3.2616329 L 303.4987,40.700203 C 309.191,36.557693 315.40963,34.481563 322.16436,34.481563 C 326.88196,34.481563 330.70282,36.070333 333.62694,39.238143 C 336.56082,42.405943 338.02288,46.353513 338.02288,51.071103 L 338.02288,88.266003 L 338.02288,88.266003 z " />
    <path
       id="path54"
       style="fill:#646464;fill-opacity:1"
       d="M 385.37424,60.525783 C 385.37424,54.930953 384.31182,50.310833 382.19669,46.655673 C 379.68195,42.201253 375.77337,39.852203 370.49044,39.608523 C 360.72386,40.173863 355.85032,47.172273 355.85032,60.584263 C 355.85032,66.734683 356.86401,71.871393 358.91089,75.994413 C 361.52312,81.248093 365.44145,83.840823 370.66589,83.753103 C 380.47146,83.675123 385.37424,75.935933 385.37424,60.525783 z M 395.13109,60.584263 C 395.13109,68.547643 393.09395,75.175663 389.02941,80.468333 C 384.5555,86.394563 378.37584,89.367423 370.49044,89.367423 C 362.67328,89.367423 356.58135,86.394563 352.18541,80.468333 C 348.19885,75.175663 346.21044,68.547643 346.21044,60.584263 C 346.21044,53.098503 348.36455,46.801883 352.67276,41.674913 C 357.22466,36.236033 363.20937,33.506853 370.6074,33.506853 C 378.00545,33.506853 384.02914,36.236033 388.66877,41.674913 C 392.97697,46.801883 395.13109,53.098503 395.13109,60.584263 z " />
    <path
       id="path56"
       style="fill:#646464;fill-opacity:1"
       d="M 446.20583,88.266003 L 437.29699,88.266003 L 437.29699,51.928853 C 437.29699,47.942293 436.0981,44.832973 433.70032,42.591133 C 431.30253,40.359053 428.10549,39.277123 424.11893,39.364853 C 419.8887,39.442833 415.86314,40.826913 412.04229,43.507363 L 412.04229,88.266003 L 403.13345,88.266003 L 403.13345,42.405943 C 408.26042,38.672813 412.97801,36.236033 417.28621,35.095623 C 421.35076,34.033193 424.93769,33.506853 428.02752,33.506853 C 430.14264,33.506853 432.13104,33.711543 434.00248,34.120913 C 437.50169,34.929923 440.34783,36.430973 442.54093,38.633823 C 444.98744,41.070593 446.20583,43.994723 446.20583,47.415943 L 446.20583,88.266003 z " />
    <path
       id="path1948"
       style="fill:url(#linearGradient1478);fill-opacity:1"
       d="M 60.510156,6.3979729 C 55.926503,6.4192712 51.549217,6.8101906 47.697656,7.4917229 C 36.35144,9.4962267 34.291407,13.691825 34.291406,21.429223 L 34.291406,31.647973 L 61.103906,31.647973 L 61.103906,35.054223 L 34.291406,35.054223 L 24.228906,35.054223 C 16.436447,35.054223 9.6131468,39.73794 7.4789058,48.647973 C 5.0170858,58.860939 4.9078907,65.233996 7.4789058,75.897973 C 9.3848341,83.835825 13.936449,89.491721 21.728906,89.491723 L 30.947656,89.491723 L 30.947656,77.241723 C 30.947656,68.391821 38.6048,60.585475 47.697656,60.585473 L 74.478906,60.585473 C 81.933857,60.585473 87.885159,54.447309 87.885156,46.960473 L 87.885156,21.429223 C 87.885156,14.162884 81.755176,8.7044455 74.478906,7.4917229 C 69.872919,6.7249976 65.093809,6.3766746 60.510156,6.3979729 z M 46.010156,14.616723 C 48.779703,14.616723 51.041406,16.915369 51.041406,19.741723 C 51.041404,22.558059 48.779703,24.835473 46.010156,24.835473 C 43.23068,24.835472 40.978906,22.558058 40.978906,19.741723 C 40.978905,16.91537 43.23068,14.616723 46.010156,14.616723 z " />
    <path
       id="path1950"
       style="fill:url(#linearGradient1475);fill-opacity:1"
       d="M 91.228906,35.054223 L 91.228906,46.960473 C 91.228906,56.191228 83.403011,63.960472 74.478906,63.960473 L 47.697656,63.960473 C 40.361823,63.960473 34.291407,70.238956 34.291406,77.585473 L 34.291406,103.11672 C 34.291406,110.38306 40.609994,114.65704 47.697656,116.74172 C 56.184987,119.23733 64.323893,119.68835 74.478906,116.74172 C 81.229061,114.78733 87.885159,110.85411 87.885156,103.11672 L 87.885156,92.897973 L 61.103906,92.897973 L 61.103906,89.491723 L 87.885156,89.491723 L 101.29141,89.491723 C 109.08387,89.491723 111.98766,84.056315 114.69765,75.897973 C 117.49698,67.499087 117.37787,59.422197 114.69765,48.647973 C 112.77187,40.890532 109.09378,35.054223 101.29141,35.054223 L 91.228906,35.054223 z M 76.166406,99.710473 C 78.945884,99.710476 81.197656,101.98789 81.197656,104.80422 C 81.197654,107.63057 78.945881,109.92922 76.166406,109.92922 C 73.396856,109.92922 71.135156,107.63057 71.135156,104.80422 C 71.135158,101.98789 73.396853,99.710473 76.166406,99.710473 z " />
    <path
       id="text3004"
       style="font-size:15.16445827px;font-style:normal;font-weight:normal;line-height:125%;fill:#646464;fill-opacity:1;stroke:none;stroke-width:1px;stroke-linecap:butt;stroke-linejoin:miter;stroke-opacity:1;font-family:Bitstream Vera Sans"
       d="M 463.5544,26.909383 L 465.11635,26.909383 L 465.11635,17.113143 L 468.81648,17.113143 L 468.81648,15.945483 L 459.85427,15.945483 L 459.85427,17.113143 L 463.5544,17.113143 L 463.5544,26.909383 M 470.20142,26.909383 L 471.53589,26.909383 L 471.53589,17.962353 L 474.4323,26.908259 L 475.91799,26.908259 L 478.93615,17.992683 L 478.93615,26.909383 L 480.39194,26.909383 L 480.39194,15.945483 L 478.46605,15.945483 L 475.16774,25.33834 L 472.35477,15.945483 L 470.20142,15.945483 L 470.20142,26.909383" />
    <path
       id="path1894"
       style="opacity:0.44382019;fill:url(#radialGradient1480);fill-opacity:1;fill-rule:nonzero;stroke:none;stroke-width:20;stroke-miterlimit:4;stroke-dasharray:none;stroke-opacity:1"
       transform="matrix(0.73406,0,0,0.809524,16.24958,27.00935)"
       d="M 110.46717 132.28575 A 48.948284 8.6066771 0 1 1  12.570599,132.28575 A 48.948284 8.6066771 0 1 1  110.46717 132.28575 z" />
  </g>
</svg>

<?xml version="1.0" encoding="utf-8"?>
<!-- Generator: Adobe Illustrator 16.0.0, SVG Export Plug-In . SVG Version: 6.00 Build 0)  -->
<!DOCTYPE svg PUBLIC "-//W3C//DTD SVG 1.1//EN" "http://www.w3.org/Graphics/SVG/1.1/DTD/svg11.dtd">
<svg version="1.1"
	 id="svg2" xmlns:dc="http://purl.org/dc/elements/1.1/" xmlns:cc="http://web.resource.org/cc/" xmlns:rdf="http://www.w3.org/1999/02/22-rdf-syntax-ns#" xmlns:svg="http://www.w3.org/2000/svg" xmlns:sodipodi="http://inkscape.sourceforge.net/DTD/sodipodi-0.dtd" xmlns:inkscape="http://www.inkscape.org/namespaces/inkscape" sodipodi:docbase="/home/sdeibel" sodipodi:docname="logo-python-generic.svg" inkscape:version="0.43" sodipodi:version="0.32"
	 xmlns="http://www.w3.org/2000/svg" xmlns:xlink="http://www.w3.org/1999/xlink" x="0px" y="0px" width="494.92px"
	 height="127.13px" viewBox="0 0 494.92 127.13" enable-background="new 0 0 494.92 127.13" xml:space="preserve">
<sodipodi:namedview  inkscape:cy="71.887497" inkscape:cx="243.02499" borderopacity="1.0" pagecolor="#ffffff" bordercolor="#666666" inkscape:zoom="1.4340089" id="base" inkscape:current-layer="svg2" inkscape:window-y="0" inkscape:window-x="0" inkscape:window-width="791" inkscape:window-height="543" inkscape:pageshadow="2" inkscape:pageopacity="0.0">
	</sodipodi:namedview>
<g id="g2303">
	<path id="path46" fill="#646464" d="M184.613,61.929c0-14.562-4.152-22.038-12.457-22.447c-3.304-0.156-6.531,0.37-9.669,1.589
		c-2.505,0.896-4.191,1.784-5.078,2.681v34.758c5.312,3.334,10.03,4.884,14.143,4.64C180.256,82.573,184.613,75.507,184.613,61.929z
		 M194.857,62.533c0,7.398-1.735,13.539-5.224,18.422c-3.889,5.527-9.279,8.373-16.17,8.529c-5.195,0.165-10.546-1.462-16.054-4.874
		v31.591l-8.909-3.178V42.903c1.462-1.793,3.343-3.333,5.624-4.639c5.302-3.09,11.745-4.679,19.329-4.757l0.126,0.127
		c6.93-0.088,12.272,2.758,16.024,8.528C193.103,47.455,194.857,54.239,194.857,62.533z"/>
	<path id="path48" fill="#646464" d="M249.305,83.266c0,9.923-0.994,16.794-2.982,20.615c-1.998,3.82-5.799,6.871-11.414,9.143
		c-4.552,1.793-9.475,2.769-14.757,2.934l-1.472-5.614c5.371-0.73,9.152-1.462,11.346-2.193c4.318-1.462,7.281-3.703,8.908-6.706
		c1.307-2.446,1.949-7.115,1.949-14.025v-2.32c-6.092,2.769-12.476,4.143-19.152,4.143c-4.387,0-8.256-1.374-11.59-4.143
		c-3.742-3.012-5.613-6.832-5.613-11.462V36.558l8.908-3.051v37.321c0,3.986,1.287,7.057,3.859,9.211
		c2.574,2.154,5.907,3.188,9.991,3.109c4.084-0.088,8.46-1.667,13.11-4.757v-43.54h8.908V83.266z"/>
	<path id="path50" fill="#646464" d="M284.082,88.997c-1.062,0.088-2.037,0.126-2.934,0.126c-5.039,0-8.967-1.198-11.774-3.605
		c-2.798-2.408-4.2-5.731-4.2-9.972v-35.09h-6.103v-5.604h6.103V19.968l8.898-3.168v18.052h10.01v5.604h-10.01v34.846
		c0,3.344,0.896,5.712,2.689,7.097c1.541,1.14,3.987,1.793,7.32,1.959V88.997z"/>
	<path id="path52" fill="#646464" d="M338.023,88.266h-8.909V53.878c0-3.499-0.819-6.511-2.446-9.025
		c-1.882-2.847-4.494-4.27-7.847-4.27c-4.084,0-9.192,2.154-15.323,6.462v41.221h-8.908V6.069l8.908-2.807V40.7
		c5.693-4.143,11.912-6.219,18.666-6.219c4.718,0,8.539,1.589,11.463,4.757c2.934,3.167,4.396,7.115,4.396,11.833V88.266
		L338.023,88.266z"/>
	<path id="path54" fill="#646464" d="M385.374,60.526c0-5.595-1.062-10.215-3.177-13.87c-2.516-4.454-6.424-6.804-11.707-7.047
		c-9.767,0.565-14.641,7.563-14.641,20.976c0,6.15,1.015,11.287,3.062,15.41c2.612,5.254,6.53,7.847,11.755,7.759
		C380.472,83.675,385.374,75.936,385.374,60.526z M395.131,60.584c0,7.964-2.037,14.592-6.102,19.884
		c-4.474,5.927-10.653,8.899-18.539,8.899c-7.816,0-13.908-2.973-18.305-8.899c-3.986-5.292-5.975-11.92-5.975-19.884
		c0-7.485,2.154-13.782,6.462-18.909c4.552-5.439,10.536-8.168,17.935-8.168s13.422,2.729,18.062,8.168
		C392.977,46.802,395.131,53.099,395.131,60.584z"/>
	<path id="path56" fill="#646464" d="M446.206,88.266h-8.909V51.929c0-3.986-1.199-7.096-3.597-9.338
		c-2.397-2.232-5.595-3.313-9.581-3.227c-4.23,0.078-8.256,1.463-12.077,4.143v44.759h-8.908v-45.86
		c5.127-3.732,9.844-6.17,14.152-7.31c4.064-1.062,7.651-1.589,10.741-1.589c2.115,0,4.104,0.204,5.976,0.614
		c3.499,0.809,6.345,2.31,8.538,4.513c2.446,2.437,3.665,5.36,3.665,8.782V88.266z"/>
	
		<linearGradient id="path1948_1_" gradientUnits="userSpaceOnUse" x1="474.168" y1="-392.8499" x2="583.1866" y2="-486.6457" gradientTransform="matrix(0.5625 0 0 -0.568 -263.8763 -213.5314)">
		<stop  offset="0" style="stop-color:#5A9FD4"/>
		<stop  offset="1" style="stop-color:#306998"/>
	</linearGradient>
	<path id="path1948" fill="url(#path1948_1_)" d="M60.51,6.398c-4.584,0.021-8.961,0.412-12.812,1.094
		c-11.346,2.005-13.406,6.2-13.406,13.938v10.219h26.812v3.406H34.292H24.229c-7.792,0-14.616,4.684-16.75,13.594
		c-2.462,10.213-2.571,16.586,0,27.25c1.906,7.938,6.458,13.594,14.25,13.594h9.219v-12.25c0-8.85,7.657-16.656,16.75-16.656h26.781
		c7.455,0,13.406-6.138,13.406-13.625V21.429c0-7.266-6.13-12.725-13.406-13.938C69.873,6.725,65.094,6.376,60.51,6.398z
		 M46.01,14.616c2.77,0,5.031,2.299,5.031,5.125c0,2.816-2.262,5.094-5.031,5.094c-2.78,0-5.031-2.277-5.031-5.094
		C40.979,16.915,43.23,14.616,46.01,14.616z"/>
	
		<linearGradient id="path1950_1_" gradientUnits="userSpaceOnUse" x1="625.334" y1="-543.4128" x2="586.4043" y2="-488.3341" gradientTransform="matrix(0.5625 0 0 -0.568 -263.8763 -213.5314)">
		<stop  offset="0" style="stop-color:#FFD43B"/>
		<stop  offset="1" style="stop-color:#FFE873"/>
	</linearGradient>
	<path id="path1950" fill="url(#path1950_1_)" d="M91.229,35.054V46.96c0,9.231-7.826,17-16.75,17H47.698
		c-7.336,0-13.406,6.278-13.406,13.625v25.531c0,7.267,6.318,11.541,13.406,13.625c8.487,2.496,16.626,2.947,26.781,0
		c6.75-1.954,13.406-5.888,13.406-13.625V92.898H61.104v-3.406h26.781h13.406c7.792,0,10.696-5.436,13.406-13.594
		c2.799-8.398,2.68-16.476,0-27.25c-1.926-7.757-5.604-13.594-13.406-13.594H91.229z M76.167,99.71c2.779,0,5.031,2.277,5.031,5.094
		c0,2.826-2.252,5.125-5.031,5.125c-2.77,0-5.031-2.299-5.031-5.125C71.135,101.988,73.397,99.71,76.167,99.71z"/>
	<path id="text3004" fill="#646464" d="M463.555,26.909h1.562v-9.796h3.7v-1.168h-8.962v1.168h3.7V26.909 M470.201,26.909h1.335
		v-8.947l2.896,8.946h1.485l3.019-8.916v8.917h1.455V15.946h-1.926l-3.298,9.393l-2.813-9.393h-2.153V26.909"/>
	
		<radialGradient id="path1894_1_" cx="-877.0781" cy="-252.9314" r="29.0368" gradientTransform="matrix(1.749057e-08 -0.2399 -1.0547 -3.791546e-07 -205.3521 -76.3552)" gradientUnits="userSpaceOnUse">
		<stop  offset="0" style="stop-color:#B8B8B8;stop-opacity:0.498"/>
		<stop  offset="1" style="stop-color:#7F7F7F;stop-opacity:0"/>
	</radialGradient>
	<path id="path1894" opacity="0.4438" fill="url(#path1894_1_)" enable-background="new    " d="M97.339,134.098
		c0,3.848-16.086,6.967-35.931,6.967s-35.931-3.119-35.931-6.967s16.087-6.968,35.931-6.968S97.339,130.25,97.339,134.098z"/>
</g>
</svg>
